brandFactory_export/3.Masa/Cocinar_3Masa.svg

<?xml version="1.0" encoding="UTF-8"?>
<svg width="24px" height="24px" viewBox="0 0 24 24" version="1.1" xmlns="http://www.w3.org/2000/svg" xmlns:xlink="http://www.w3.org/1999/xlink">
    <title>3.Masa/Cocinar_3Masa</title>
    <g id="Symbols" stroke="none" stroke-width="1" fill="none" fill-rule="evenodd">
        <g id="3.Masa/Cocinar_3Masa" fill="#5CB615" fill-rule="nonzero">
            <path d="M21.0890756,17.6151261 C21.8487395,17.605042 22.2352941,17.1848739 22.2352941,16.3647059 C22.2352941,15.5478992 21.8554622,15.1310924 21.1092437,15.1243697 C21.0957983,15.1243697 21.0857143,15.1176471 21.0722689,15.1176471 C21.0386555,15.9815126 20.9647059,16.8184874 20.8268908,17.605042 C20.8672269,17.6084034 20.9109244,17.6117647 20.9378151,17.6117647 L21.0890756,17.6151261 L21.0890756,17.6151261 Z M20.4907563,11.2285714 C20.692437,11.0336134 20.7932773,10.7411765 20.7932773,10.3613445 C20.7932773,9.98151261 20.692437,9.68907563 20.4907563,9.4907563 C20.2957983,9.29915966 20.0134454,9.20168067 19.6571429,9.20168067 C19.5731092,9.20168067 19.4991597,9.20504202 19.4252101,9.21848739 C19.405042,9.22184874 19.3983193,9.21848739 19.3882353,9.20504202 C19.3747899,9.19159664 19.3815126,9.18823529 19.3848739,9.16806723 C19.4016807,9.04705882 19.4117647,8.91932773 19.4117647,8.78487395 C19.4117647,8.22016807 19.2605042,7.78655462 18.9613445,7.4907563 C18.6722689,7.21176471 18.2588235,7.06722689 17.7243697,7.06722689 C17.1932773,7.06722689 16.7764706,7.21176471 16.4907563,7.49411765 C16.3394958,7.6487395 16.2285714,7.84033613 16.1512605,8.06554622 C16.1445378,8.08235294 16.1445378,8.09579832 16.1310924,8.10588235 C16.1109244,8.11596639 16.0941176,8.1092437 16.0739496,8.10588235 C15.9663866,8.08907563 15.8521008,8.08235294 15.7310924,8.08235294 C15.2,8.08235294 14.7865546,8.22689076 14.497479,8.5092437 C14.4067227,8.59663866 14.3327731,8.70084034 14.2689076,8.81512605 C14.2689076,8.81848739 14.2655462,8.82184874 14.2655462,8.82521008 C14.2588235,8.84537815 14.2521008,8.84537815 14.2319328,8.8487395 C14.205042,8.85210084 14.2016807,8.84201681 14.1815126,8.82184874 C13.9226891,8.56638655 13.5495798,8.43865546 13.0722689,8.43865546 C12.5915966,8.43865546 12.2184874,8.56638655 11.9630252,8.82184874 C11.8453782,8.93277311 11.7647059,9.07731092 11.7008403,9.23529412 C11.7008403,9.23529412 11.6672269,9.26554622 11.6336134,9.25882353 C11.6,9.2487395 11.589916,9.21512605 11.589916,9.21512605 C11.5697479,8.81848739 11.4655462,8.49579832 11.2403361,8.28067227 C11.0117647,8.05210084 10.6756303,7.93781513 10.2487395,7.93781513 C9.82184874,7.93781513 9.48907563,8.05210084 9.25714286,8.28067227 C9.12941176,8.40504202 9.04201681,8.56638655 8.97815126,8.75462185 C8.97478992,8.76134454 8.97142857,8.76806723 8.96470588,8.77142857 C8.9512605,8.77815126 8.94117647,8.76806723 8.93445378,8.76806723 C8.74957983,8.62016807 8.51764706,8.54621849 8.20840336,8.54621849 C7.85210084,8.54621849 7.57310924,8.64369748 7.38151261,8.83193277 C7.28067227,8.93277311 7.20672269,9.0605042 7.15966387,9.20504202 C7.15630252,9.22184874 7.15294118,9.23193277 7.1394958,9.23865546 C7.12268908,9.2487395 7.1092437,9.24201681 7.08907563,9.24201681 C7.02184874,9.23193277 6.9512605,9.22857143 6.87394958,9.22857143 C6.51764706,9.22857143 6.24201681,9.32605042 6.05042017,9.51428571 C5.99663866,9.56470588 5.96302521,9.62521008 5.92941176,9.69243697 C5.91260504,9.71932773 5.9092437,9.7394958 5.8789916,9.74957983 C5.84537815,9.76302521 5.81512605,9.74621849 5.77815126,9.73613445 C5.67731092,9.70252101 5.56302521,9.6789916 5.43193277,9.6789916 C5.13613445,9.6789916 4.90756303,9.75966387 4.74621849,9.91428571 C4.69579832,9.96806723 4.65210084,10.0285714 4.61512605,10.0991597 C4.59495798,10.1327731 4.60168067,10.1630252 4.56470588,10.1798319 C4.52773109,10.1966387 4.48739496,10.1865546 4.44705882,10.1764706 C4.36302521,10.1596639 4.27226891,10.1495798 4.16806723,10.1495798 C3.87563025,10.1495798 3.64369748,10.2302521 3.48571429,10.3848739 C3.3210084,10.5462185 3.23697479,10.7882353 3.23697479,11.1008403 L3.23697479,11.5142857 L9.54621849,11.5142857 C9.55966387,11.5109244 9.57647059,11.507563 9.59327731,11.507563 L11.4252101,11.507563 C11.4386555,11.5109244 11.4554622,11.5109244 11.4689076,11.5142857 L19.6638655,11.5142857 C20.0201681,11.507563 20.2957983,11.4168067 20.4907563,11.2285714 Z M2.6789916,17.6151261 C2.69915966,17.6151261 2.72941176,17.6117647 2.75294118,17.6084034 C2.61848739,16.8487395 2.54453782,16.0184874 2.50756303,15.1277311 C1.76806723,15.1411765 1.39159664,15.5546218 1.39159664,16.3647059 C1.39159664,17.1848739 1.77815126,17.605042 2.53781513,17.6151261 L2.6789916,17.6151261 L2.6789916,17.6151261 Z M21.1193277,13.712605 C22.2756303,13.7226891 23.6235294,14.4252101 23.6235294,16.3680672 C23.6235294,18.307563 22.2689076,19.0168067 21.1092437,19.0336134 L21.0285714,19.0336134 C20.9243697,19.0336134 20.6756303,19.0302521 20.4773109,19.010084 C19.8554622,20.8991597 18.6453782,22.287395 16.2857143,22.5932773 C16.2117647,22.6235294 16.1277311,22.6403361 16.0470588,22.6403361 L15.7848739,22.6403361 C15.6268908,22.6504202 15.4184874,22.6638655 15.1966387,22.6638655 C14.9747899,22.6638655 14.7697479,22.6504202 14.5680672,22.6403361 L8.96806723,22.6436975 C8.80672269,22.6537815 8.60168067,22.6672269 8.37983193,22.6672269 C5.35462185,22.6672269 3.81848739,21.3058824 3.08235294,19 C2.82016807,19.0336134 2.74957983,19.0336134 2.60168067,19.0336134 L2.51428571,19.0336134 C1.35462185,19.0168067 0,18.307563 0,16.3680672 C0,14.4453782 1.32436975,13.7394958 2.47394958,13.7159664 L2.47394958,12.7243697 C2.4,12.6739496 2.32605042,12.6168067 2.26218487,12.5495798 C2,12.287395 1.85210084,11.9243697 1.85210084,11.5478992 L1.85210084,11.1008403 C1.85210084,10.2168067 2.21848739,9.66890756 2.52436975,9.3697479 C2.78991597,9.10420168 3.25042017,8.79495798 3.96302521,8.74453782 C4.26218487,8.5092437 4.71260504,8.28403361 5.35798319,8.26722689 C5.60672269,8.08907563 5.94285714,7.92436975 6.38319328,7.85378151 L6.42016807,7.82016807 C6.73613445,7.50756303 7.30420168,7.13781513 8.21176471,7.13781513 C8.28571429,7.13781513 8.35630252,7.14117647 8.4302521,7.14453782 C8.78991597,6.83865546 9.37478992,6.52941176 10.2487395,6.52941176 C11.1462185,6.52941176 11.7344538,6.85546218 12.0941176,7.16470588 C12.3697479,7.08067227 12.6957983,7.0302521 13.0689076,7.0302521 C13.4117647,7.0302521 13.7142857,7.07394958 13.9731092,7.14789916 C14.3058824,6.93613445 14.7495798,6.75462185 15.3310924,6.69747899 C15.3915966,6.62689076 15.4554622,6.55294118 15.5226891,6.48907563 C15.902521,6.11260504 16.594958,5.66554622 17.7210084,5.66554622 C18.8470588,5.66554622 19.5394958,6.11260504 19.9193277,6.48571429 C20.2218487,6.78151261 20.5680672,7.26218487 20.7193277,7.99831933 C21.0420168,8.12941176 21.2806723,8.31428571 21.4487395,8.4789916 C21.7848739,8.80504202 22.1781513,9.4 22.1781513,10.3680672 C22.1781513,11.3394958 21.7781513,11.9310924 21.4453782,12.2605042 C21.3512605,12.3512605 21.2302521,12.4453782 21.0957983,12.5327731 L21.0957983,13.7226891 L21.1193277,13.7226891 L21.1193277,13.712605 Z M11.0453782,2.50588235 C10.2689076,2.72773109 9.97647059,3.21848739 10.1714286,3.96470588 L10.2084034,4.10252101 L12.594958,3.41680672 C12.5680672,3.36638655 12.5378151,3.32605042 12.5210084,3.27226891 C12.312605,2.5394958 11.8151261,2.28739496 11.0453782,2.50588235 L11.0453782,2.50588235 Z M3.12941176,7.57815126 C2.82352941,7.57815126 2.54453782,7.37310924 2.4605042,7.06386555 C2.35630252,6.68739496 2.57142857,6.29411765 2.94117647,6.18991597 L8.87394958,4.48571429 C8.8605042,4.43529412 8.84369748,4.37815126 8.8302521,4.31764706 C8.53109244,3.18823529 8.83361345,1.66554622 10.6722689,1.14117647 C12.5142857,0.610084034 13.5394958,1.74285714 13.8588235,2.87226891 C13.8756303,2.93277311 13.8722689,2.98991597 13.8722689,3.04705882 L19.7042017,1.37310924 C20.0773109,1.26890756 20.4605042,1.48739496 20.5613445,1.8605042 C20.6655462,2.23697479 20.4537815,2.6302521 20.0840336,2.73445378 L3.31764706,7.55462185 C3.25378151,7.57142857 3.19327731,7.57815126 3.12941176,7.57815126 Z" id="Cocinar_3Masa"></path>
        </g>
    </g>
</svg>

<svg width="24" height="24" viewBox="0 0 24 24" xmlns="http://www.w3.org/2000/svg"><path d="M21.09 17.615c.759-.01 1.145-.43 1.145-1.25 0-.817-.38-1.234-1.126-1.24-.013 0-.023-.007-.037-.007-.033.864-.107 1.7-.245 2.487.04.003.084.007.11.007l.152.003zm-.6-6.386c.202-.195.303-.488.303-.868s-.1-.672-.302-.87c-.195-.192-.478-.29-.834-.29-.084 0-.158.004-.232.017-.02.004-.027 0-.037-.013-.013-.013-.006-.017-.003-.037a2.78 2.78 0 00.027-.383c0-.565-.151-.998-.45-1.294-.29-.28-.703-.424-1.238-.424-.53 0-.948.145-1.233.427a1.496 1.496 0 00-.34.572c-.006.016-.006.03-.02.04-.02.01-.037.003-.057 0a2.227 2.227 0 00-.343-.024c-.531 0-.944.145-1.234.427-.09.088-.164.192-.228.306l-.003.01c-.007.02-.014.02-.034.024-.027.003-.03-.007-.05-.027-.26-.256-.632-.383-1.11-.383-.48 0-.854.127-1.109.383-.118.11-.198.255-.262.413 0 0-.034.03-.067.024-.034-.01-.044-.044-.044-.044-.02-.397-.124-.72-.35-.934-.228-.229-.564-.343-.991-.343-.427 0-.76.114-.992.343a1.168 1.168 0 00-.279.474c-.003.006-.007.013-.013.016-.014.007-.024-.003-.03-.003-.185-.148-.417-.222-.727-.222-.356 0-.635.098-.826.286-.101.1-.175.229-.222.373-.004.017-.007.027-.02.034-.017.01-.03.003-.05.003a1.449 1.449 0 00-.216-.013c-.356 0-.632.097-.824.285a.597.597 0 00-.12.178c-.017.027-.02.047-.051.058-.034.013-.064-.004-.1-.014a1.082 1.082 0 00-.347-.057c-.296 0-.524.08-.686.235a.831.831 0 00-.13.185c-.021.034-.014.064-.051.08-.037.018-.078.008-.118-.003a1.403 1.403 0 00-.279-.026c-.292 0-.524.08-.682.235-.165.161-.249.403-.249.716v.413h6.31a.198.198 0 01.046-.006h1.832c.014.003.03.003.044.006h8.195c.356-.006.632-.097.827-.285zM2.68 17.615c.02 0 .05-.003.074-.007-.135-.76-.208-1.59-.245-2.48-.74.013-1.116.427-1.116 1.237 0 .82.386 1.24 1.146 1.25h.141zm18.44-3.902c1.157.01 2.505.712 2.505 2.655 0 1.94-1.355 2.649-2.515 2.666h-.08c-.105 0-.353-.004-.552-.024-.622 1.89-1.832 3.277-4.191 3.583a.642.642 0 01-.239.047h-.262c-.158.01-.367.024-.588.024-.222 0-.427-.014-.629-.024l-5.6.004c-.161.01-.366.023-.588.023-3.025 0-4.562-1.361-5.298-3.667-.262.034-.332.034-.48.034h-.088C1.354 19.017 0 18.308 0 16.368c0-1.923 1.324-2.629 2.474-2.652v-.992a1.42 1.42 0 01-.622-1.176V11.1c0-.884.366-1.432.672-1.731.266-.266.726-.575 1.439-.625.3-.236.75-.461 1.395-.478a2.388 2.388 0 011.025-.413l.037-.034c.316-.312.884-.682 1.792-.682.074 0 .144.003.218.007.36-.306.945-.616 1.819-.616.897 0 1.485.326 1.845.636.276-.084.602-.135.975-.135.343 0 .645.044.904.118a3.045 3.045 0 011.358-.45c.06-.071.124-.145.192-.209.38-.376 1.072-.823 2.198-.823s1.818.447 2.198.82c.303.296.65.776.8 1.512.323.131.562.316.73.481.336.326.73.921.73 1.89 0 .97-.4 1.562-.734 1.892-.094.09-.215.184-.35.272v1.19h.024v-.01zM11.045 2.506c-.776.222-1.069.712-.874 1.459l.037.138 2.387-.686c-.027-.05-.057-.09-.074-.145-.208-.733-.706-.985-1.476-.766zM3.13 7.578a.695.695 0 01-.668-.514.71.71 0 01.48-.874l5.933-1.704c-.013-.05-.03-.108-.044-.168-.299-1.13.004-2.652 1.842-3.177 1.842-.53 2.867.602 3.187 1.731.017.06.013.118.013.175l5.832-1.674a.693.693 0 01.857.488.707.707 0 01-.477.873L3.318 7.554a.722.722 0 01-.189.024z" fill="#5CB615" fill-rule="nonzero"/></svg>
